X:1
T:Title
L:1/8
Q:1/4=95
M:6/8
K:C
V:1 treble nm="Church Organ, Staff"
V:1
 E G2 A G2 | E D2 EFE | D E2 G c2 | dBA G A2 | Gde fed | cAB c d2 | e c2 dAc | B G2- G/ z/ E2 | %8
w: By~Geoffrey~Shaw * * *||||||||
 D G2 A G2 | E D2 EFE | D G2 A G2 | E A2 B A2 | B c2 dcB | A d2 e2 d- | def edc | BAd- d3/2 z/ G- | %16
w: ||||||||
 G3 z3 |] %17
w: |

